svgs/thin/comment-minus.svg

<svg xmlns="http://www.w3.org/2000/svg" viewBox="0 0 512 512"><!--! Font Awesome Pro 6.3.0 by @fontawesome - https://fontawesome.com License - https://fontawesome.com/license (Commercial License) Copyright 2023 Fonticons, Inc. --><path d="M256 32C114.6 32 .0281 125.1 .0281 240c0 49.59 21.38 95.03 56.97 130.7C44.5 421.1 2.729 466 2.229 466.5c-2.188 2.297-2.781 5.734-1.5 8.734C2.041 478.2 4.813 480 8 480c66.31 0 116-31.78 140.6-51.39C181.3 440.9 217.6 448 256 448c141.4 0 255.1-93.09 255.1-208S397.4 32 256 32zM256 432c-35.12 0-69.36-6.184-101.8-18.38L145.7 410.4l-7.105 5.666c-20.2 16.11-60.14 42.04-112.7 47.06c14.44-18.29 37.42-51.68 46.57-88.59l2.172-8.758l-6.371-6.391C34.1 325.1 16 283.8 16 240c0-105.9 107.7-192 240-192s240 86.13 240 192S388.3 432 256 432zM344 232h-176C163.6 232 160 235.6 160 240c0 4.422 3.578 8 8 8h176C348.4 248 352 244.4 352 240S348.4 232 344 232z"/></svg>

<svg xmlns="http://www.w3.org/2000/svg" viewBox="0 0 512 512"><!-- Font Awesome Pro 6.0.0-alpha2 by @fontawesome - https://fontawesome.com License - https://fontawesome.com/license (Commercial License) --><path d="M256 32C114.594 32 0 125.094 0 240C0 289.594 21.406 335 57 370.703C44.5 421.094 2.688 466 2.188 466.5C0 468.797 -0.594 472.203 0.688 475.203C1.999 478.203 4.812 480 8 480C74.312 480 124 448.203 148.594 428.594C181.312 440.906 217.594 448 256 448C397.406 448 512 354.906 512 240S397.406 32 256 32ZM256 432C220.879 432 186.641 425.816 154.23 413.619L145.723 410.418L138.617 416.084C118.418 432.189 78.477 458.119 25.957 463.143C40.395 444.848 63.375 411.461 72.531 374.555L74.703 365.797L68.332 359.406C34.098 325.066 16 283.775 16 240C16 134.131 123.664 48 256 48S496 134.131 496 240S388.336 432 256 432ZM344 232H168C163.578 232 160 235.58 160 240C160 244.422 163.578 248 168 248H344C348.422 248 352 244.42 352 240S348.422 232 344 232Z"/></svg>
